!!!SOCIAL_FUNCTION:	summer dances
!!!PDT:	1956
!!!OTL: No_190_Crawfish_Dance_Song_(a).krn
!!!LANG: Non-Tone
!!!LING_GROUP: Muskogean
!!!REG: Florida
**kern
*staff1
=1-
=
*clefF4
*k[f#c#g#d#]
*M5/8
16E\LL
16E\J
8G#\
8G#\
(8G#\
8E\J)
=2||
*M4/8
16F#\LL
16F#\JJ
8F#\
4F#\
=3||
*M5/8
16E\LL
16E\J
8E\
8G#\
(8G#\
8E\J)
=4||
*M4/8
16E\LL
16E\JJ
8E\
4E\
=5||
*M5/8
16F#\LL
16F#\J
8E\
8F#\
(8E\
8C#\J)
=6
16E\LL
16E\J
8E\
8E\J
8r
8C#/
=7||
*M4/8
4E\
16E\LL
16E\JJ
8C#/
=8||
*M5/8
4.E\
8r
8C#/
=9||
*M4/8
4E\
16E\LL
16E\JJ
16C#/
16r
=10||
*M3/8
4.E\
=11:|!
*M2/4
16E\LL
16E\J
8E\J
4E\
=12
16G#\LK
8.E\J
4E\
=13
16G#\LL
16E\J
8E\J
4E\
=14
16G#\LK
8.E\J
4E\
=15
16G#\LL
16E\J
8E\J
4E\
==
*-
